src/pos-icons/propane-tank-outline.svg

<svg height="24" viewBox="0 0 24 24" width="24" xmlns="http://www.w3.org/2000/svg"><path d="m16 6v-2c0-1.1-.89-2-2-2h-4c-1.1 0-2 .9-2 2v2c-2.21 0-4 1.79-4 4v7c0 1.86 1.28 3.41 3 3.86v1.14h10v-1.14c1.72-.44 3-2 3-3.86v-7c0-2.21-1.79-4-4-4m-6-2h4v2h-4zm8 13c0 1.1-.9 2-2 2h-8c-1.1 0-2-.9-2-2v-7c0-1.1.9-2 2-2h8c1.1 0 2 .9 2 2z"/></svg>

<?xml version="1.0" encoding="UTF-8"?><!DOCTYPE svg PUBLIC "-//W3C//DTD SVG 1.1//EN" "http://www.w3.org/Graphics/SVG/1.1/DTD/svg11.dtd"><svg xmlns="http://www.w3.org/2000/svg" xmlns:xlink="http://www.w3.org/1999/xlink" version="1.1" id="mdi-propane-tank-outline" width="24" height="24" viewBox="0 0 24 24"><path d="M16 6V4C16 2.9 15.11 2 14 2H10C8.9 2 8 2.9 8 4V6C5.79 6 4 7.79 4 10V17C4 18.86 5.28 20.41 7 20.86V22H17V20.86C18.72 20.42 20 18.86 20 17V10C20 7.79 18.21 6 16 6M10 4H14V6H10V4M18 17C18 18.1 17.1 19 16 19H8C6.9 19 6 18.1 6 17V10C6 8.9 6.9 8 8 8H16C17.1 8 18 8.9 18 10V17Z" /></svg>
